openmetadata-ui/src/main/resources/ui/src/assets/svg/filter.svg

<svg width="16" height="16" viewBox="0 0 16 16" fill="none" xmlns="http://www.w3.org/2000/svg">
<path d="M0.5 2.82053H8.11266C8.34209 3.86487 9.27472 4.6489 10.387 4.6489C11.4992 4.6489 12.4318 3.8649 12.6613 2.82053H15.5C15.7761 2.82053 16 2.59665 16 2.32053C16 2.0444 15.7761 1.82053 15.5 1.82053H12.661C12.4312 0.776718 11.4972 -0.0078125 10.387 -0.0078125C9.27609 -0.0078125 8.34262 0.776593 8.11284 1.82053H0.5C0.223875 1.82053 0 2.0444 0 2.32053C0 2.59665 0.223875 2.82053 0.5 2.82053ZM9.05866 2.32184C9.05866 2.32006 9.05869 2.31825 9.05869 2.31647C9.06087 1.58625 9.65672 0.992218 10.387 0.992218C11.1162 0.992218 11.7121 1.58544 11.7152 2.31531L11.7153 2.32265C11.7142 3.05412 11.1187 3.64893 10.387 3.64893C9.65553 3.64893 9.06028 3.05472 9.05863 2.32369L9.05866 2.32184ZM15.5 13.1793H12.661C12.4311 12.1355 11.4972 11.351 10.387 11.351C9.27609 11.351 8.34262 12.1354 8.11284 13.1793H0.5C0.223875 13.1793 0 13.4031 0 13.6793C0 13.9555 0.223875 14.1793 0.5 14.1793H8.11266C8.34209 15.2236 9.27472 16.0077 10.387 16.0077C11.4992 16.0077 12.4318 15.2236 12.6613 14.1793H15.5C15.7761 14.1793 16 13.9555 16 13.6793C16 13.4031 15.7761 13.1793 15.5 13.1793ZM10.387 15.0077C9.65553 15.0077 9.06028 14.4135 9.05863 13.6824L9.05866 13.6806C9.05866 13.6788 9.05869 13.677 9.05869 13.6752C9.06087 12.945 9.65672 12.351 10.387 12.351C11.1162 12.351 11.7121 12.9442 11.7152 13.674L11.7153 13.6814C11.7143 14.4129 11.1188 15.0077 10.387 15.0077ZM15.5 7.49993H7.88734C7.65791 6.45559 6.72528 5.67159 5.61303 5.67159C4.50078 5.67159 3.56816 6.45559 3.33872 7.49993H0.5C0.223875 7.49993 0 7.72381 0 7.99993C0 8.27609 0.223875 8.49993 0.5 8.49993H3.33897C3.56888 9.54371 4.50275 10.3283 5.61303 10.3283C6.72391 10.3283 7.65738 9.54384 7.88716 8.49993H15.5C15.7761 8.49993 16 8.27609 16 7.99993C16 7.72381 15.7761 7.49993 15.5 7.49993ZM6.94134 7.99862C6.94134 8.00043 6.94131 8.00221 6.94131 8.00399C6.93912 8.73421 6.34328 9.32824 5.61303 9.32824C4.88381 9.32824 4.28794 8.73502 4.28478 8.00518L4.28469 7.99787C4.28578 7.26631 4.88125 6.67159 5.61303 6.67159C6.34447 6.67159 6.93972 7.26577 6.94137 7.99684L6.94134 7.99862Z" fill="#7147E8"/>
</svg>

<svg xmlns="http://www.w3.org/2000/svg" width="16" height="16" fill="none"><path fill="#7147E8" d="M.5 2.82h7.613a2.333 2.333 0 0 0 2.274 1.829 2.333 2.333 0 0 0 2.274-1.828H15.5a.5.5 0 0 0 0-1h-2.839a2.335 2.335 0 0 0-2.274-1.829c-1.11 0-2.044.785-2.274 1.829H.5a.5.5 0 0 0 0 1Zm8.559-.498v-.006A1.33 1.33 0 0 1 10.387.992c.73 0 1.325.593 1.328 1.323v.008a1.33 1.33 0 0 1-1.328 1.326 1.33 1.33 0 0 1-1.328-1.325v-.002ZM15.5 13.179h-2.839a2.335 2.335 0 0 0-2.274-1.828c-1.11 0-2.044.784-2.274 1.828H.5a.5.5 0 1 0 0 1h7.613a2.333 2.333 0 0 0 2.274 1.829 2.333 2.333 0 0 0 2.274-1.829H15.5a.5.5 0 1 0 0-1Zm-5.113 1.829a1.33 1.33 0 0 1-1.328-1.326v-.007a1.33 1.33 0 0 1 1.328-1.324c.73 0 1.325.593 1.328 1.323v.007a1.33 1.33 0 0 1-1.328 1.327ZM15.5 7.5H7.887a2.332 2.332 0 0 0-2.274-1.828A2.333 2.333 0 0 0 3.339 7.5H.5a.5.5 0 0 0 0 1h2.839a2.335 2.335 0 0 0 2.274 1.828c1.11 0 2.044-.784 2.274-1.828H15.5a.5.5 0 0 0 0-1Zm-8.559.499v.005a1.33 1.33 0 0 1-1.328 1.324c-.73 0-1.325-.593-1.328-1.323v-.007a1.33 1.33 0 0 1 1.328-1.326 1.33 1.33 0 0 1 1.328 1.325v.002Z"/></svg>
